X:140
T:Quadrille. CJF.140
R:Quadrille
S:C.J.Fox MS, 1829/33, Beverley,E.Yorks.
N:Marked “No. 3” above start of first stave. “C J Fox”
N:written in stave, at end of tune. The note marked “e” is a
N:G on the stave, with the letter “e” written below in the MS. – PJH
B:Kidson Coll.Mitchell Lib.M1805
O:England
A:East Yorkshire
Z:vmp.P J Headford 2000 & 2008
M:6/8
L:1/8
Q:3/8=120
K:C
“$”c2(d edc)|(d>G)G GAB|{d/}cBc {e/}dcd|eagd2e|\
c2d edc|(d>G)G GAB|(ca)gd2e|.c.G.EC2zh||!
d3-dbg|g3^fga|(b2g)(d2B)|(d2A) ABc|d3dbg|\
g3-g.^f.e|(dBG) DE^F|(A3G2)G”$”||!
(A3E2)C|A,3-A,B,C|D2EF2E|” e”EDCB,3|\
a3e2c|A3ABc|G3GFD|C3C2z”$”||

